dist/images/icons/time.svg

<svg width="34" height="34" viewBox="0 0 34 34" fill="none" xmlns="http://www.w3.org/2000/svg">
<g clip-path="url(#clip0)">
<path d="M31.7543 12.8812L32.7503 11.8853C33.0383 11.5974 33.1969 11.2146 33.1969 10.8074C33.1969 10.4003 33.0383 10.0174 32.7504 9.72958L31.6096 8.58879C31.3217 8.30092 30.9389 8.14234 30.5318 8.14234C30.1246 8.14234 29.7418 8.30092 29.454 8.58879L28.4579 9.58481C27.1434 8.67936 25.6517 8.01371 24.046 7.6516V6.17944H24.6521C25.4727 6.17944 26.1403 5.51179 26.1403 4.69121V2.6208C26.1403 1.80015 25.4727 1.13251 24.6521 1.13251H17.8004C16.9798 1.13251 16.3122 1.80015 16.3122 2.6208V4.69114C16.3122 5.51173 16.9798 6.17937 17.8004 6.17937H18.4064V7.65565C16.8081 8.01876 15.3231 8.68288 14.0137 9.58475L13.0177 8.58872C12.7299 8.30085 12.347 8.14227 11.94 8.14227C11.5327 8.14227 11.15 8.30085 10.8621 8.58872L9.72132 9.72951C9.12706 10.3238 9.12706 11.2909 9.72132 11.8852L9.8979 12.0618H5.19077C4.82407 12.0618 4.52671 12.3591 4.52671 12.7258C4.52671 13.0926 4.82407 13.3899 5.19077 13.3899H10.3845C9.88966 14.1868 9.48 15.0417 9.16863 15.9423H0.664061C0.297367 15.9423 0 16.2396 0 16.6064C0 16.9732 0.297367 17.2705 0.664061 17.2705H8.78898C8.60165 18.0942 8.4942 18.9477 8.47521 19.8229H4.24999C3.8833 19.8229 3.58593 20.1202 3.58593 20.487C3.58593 20.8537 3.8833 21.151 4.24999 21.151H8.51492C8.58671 22.0299 8.74801 22.8836 8.98946 23.7035H3.32031C2.95361 23.7035 2.65624 24.0008 2.65624 24.3675C2.65624 24.7343 2.95361 25.0316 3.32031 25.0316H9.46181C11.3938 29.63 15.9436 32.8675 21.2358 32.8675C28.274 32.8675 34 27.1415 34 20.1033C34 17.4246 33.1699 14.9364 31.7543 12.8812ZM30.3931 9.5279C30.4406 9.48042 30.4947 9.47046 30.5318 9.47046C30.5689 9.47046 30.623 9.48042 30.6705 9.5279L31.8113 10.6687C31.8588 10.7162 31.8688 10.7704 31.8688 10.8074C31.8688 10.8445 31.8588 10.8987 31.8112 10.9461L30.9382 11.8192C30.5031 11.3104 30.0288 10.8361 29.52 10.401L30.3931 9.5279ZM17.6403 4.69121V2.6208C17.6403 2.53248 17.7122 2.46063 17.8004 2.46063H24.6521C24.7403 2.46063 24.8122 2.53248 24.8122 2.6208V4.69114C24.8122 4.77947 24.7403 4.85125 24.6521 4.85125H23.382H19.0704H17.8004C17.7122 4.85132 17.6403 4.77947 17.6403 4.69121ZM19.7345 6.17944H22.7179V7.42568C22.2315 7.36917 21.7372 7.33916 21.2359 7.33916C20.7279 7.33916 20.2272 7.3699 19.7346 7.42787L19.7345 6.17944ZM10.6604 10.6686L11.8012 9.52784C11.8486 9.48036 11.9028 9.4704 11.9399 9.4704C11.9769 9.4704 12.0311 9.48036 12.0786 9.52784L12.9516 10.4009C12.4428 10.836 11.9686 11.3103 11.5335 11.8191L10.6604 10.9461C10.5839 10.8696 10.5839 10.7451 10.6604 10.6686ZM21.2358 31.5393C14.93 31.5393 9.79975 26.4091 9.79975 20.1033C9.79975 13.7974 14.93 8.66721 21.2358 8.66721C27.5417 8.66721 32.6719 13.7974 32.6719 20.1033C32.6719 26.4091 27.5417 31.5393 21.2358 31.5393Z" fill="#FF6838"/>
<path d="M25.6188 14.7811L22.4797 17.9202C22.1126 17.7102 21.6881 17.5895 21.2358 17.5895C19.8497 17.5895 18.722 18.7171 18.722 20.1033C18.722 21.4894 19.8497 22.617 21.2358 22.617C22.6219 22.617 23.7495 21.4894 23.7495 20.1033C23.7495 19.6509 23.6288 19.2265 23.4188 18.8594L26.5579 15.7203C26.8172 15.461 26.8172 15.0405 26.5579 14.7811C26.2985 14.5218 25.8782 14.5218 25.6188 14.7811ZM21.2358 21.289C20.582 21.289 20.0502 20.7571 20.0502 20.1034C20.0502 19.4496 20.5821 18.9177 21.2358 18.9177C21.8895 18.9177 22.4214 19.4496 22.4214 20.1034C22.4214 20.7571 21.8896 21.289 21.2358 21.289Z" fill="#FF6838"/>
<path d="M21.2361 11.4937C21.4107 11.4937 21.582 11.4226 21.7055 11.2991C21.829 11.1756 21.9001 11.0042 21.9001 10.8296C21.9001 10.6549 21.8291 10.4836 21.7055 10.3601C21.582 10.2366 21.4107 10.1655 21.2361 10.1655C21.0614 10.1655 20.8901 10.2366 20.7666 10.3601C20.6431 10.4836 20.572 10.6549 20.572 10.8296C20.572 11.0049 20.643 11.1756 20.7666 11.2991C20.8902 11.4226 21.0614 11.4937 21.2361 11.4937Z" fill="#FF6838"/>
<path d="M21.2361 28.7128C21.0614 28.7128 20.8901 28.7838 20.7666 28.9073C20.6431 29.0309 20.572 29.2022 20.572 29.3768C20.572 29.5521 20.643 29.7228 20.7666 29.8463C20.8901 29.9705 21.0614 30.0409 21.2361 30.0409C21.4107 30.0409 21.582 29.9705 21.7055 29.8463C21.829 29.7228 21.9001 29.5515 21.9001 29.3768C21.9001 29.2022 21.8291 29.0309 21.7055 28.9073C21.582 28.7838 21.4107 28.7128 21.2361 28.7128Z" fill="#FF6838"/>
<path d="M14.6784 12.8815C14.5038 12.8815 14.3325 12.9525 14.2089 13.076C14.0854 13.1996 14.0144 13.3709 14.0144 13.5455C14.0144 13.7208 14.0854 13.8915 14.2089 14.0157C14.3325 14.1392 14.5038 14.2096 14.6784 14.2096C14.8531 14.2096 15.0244 14.1392 15.1479 14.0157C15.2714 13.8915 15.3425 13.7208 15.3425 13.5455C15.3425 13.3709 15.2714 13.2002 15.1479 13.076C15.0244 12.9525 14.8531 12.8815 14.6784 12.8815Z" fill="#FF6838"/>
<path d="M27.7937 25.9967C27.6183 25.9967 27.4477 26.0678 27.3235 26.1913C27.2 26.3148 27.1296 26.4861 27.1296 26.6608C27.1296 26.8354 27.2 27.0067 27.3235 27.1303C27.4477 27.2538 27.6183 27.3248 27.7937 27.3248C27.9683 27.3248 28.1397 27.2538 28.2631 27.1303C28.3866 27.0067 28.4577 26.8354 28.4577 26.6608C28.4577 26.4861 28.3867 26.3148 28.2631 26.1913C28.1397 26.0678 27.9683 25.9967 27.7937 25.9967Z" fill="#FF6838"/>
<path d="M14.6784 25.9967C14.5038 25.9967 14.3325 26.0678 14.2089 26.1913C14.0854 26.3148 14.0144 26.4861 14.0144 26.6608C14.0144 26.8354 14.0854 27.0067 14.2089 27.1303C14.3325 27.2538 14.5038 27.3248 14.6784 27.3248C14.8531 27.3248 15.0244 27.2538 15.1479 27.1303C15.2714 27.0067 15.3425 26.8354 15.3425 26.6608C15.3425 26.4861 15.2714 26.3148 15.1479 26.1913C15.0244 26.0678 14.8531 25.9967 14.6784 25.9967Z" fill="#FF6838"/>
<path d="M11.9624 19.4391C11.7871 19.4391 11.6165 19.5101 11.493 19.6337C11.3688 19.7572 11.2984 19.9285 11.2984 20.1031C11.2984 20.2778 11.3688 20.4491 11.493 20.5726C11.6165 20.6968 11.7872 20.7672 11.9624 20.7672C12.1371 20.7672 12.3084 20.6968 12.4319 20.5726C12.5554 20.4491 12.6265 20.2778 12.6265 20.1031C12.6265 19.9285 12.5555 19.7572 12.4319 19.6337C12.3084 19.5101 12.1371 19.4391 11.9624 19.4391Z" fill="#FF6838"/>
<path d="M30.9791 19.6337C30.8556 19.5101 30.6842 19.4391 30.5096 19.4391C30.3343 19.4391 30.1636 19.5101 30.0402 19.6337C29.9167 19.7572 29.8455 19.9285 29.8455 20.1031C29.8455 20.2785 29.9166 20.4491 30.0402 20.5726C30.1636 20.6962 30.3349 20.7672 30.5096 20.7672C30.6842 20.7672 30.8556 20.6962 30.9791 20.5726C31.1026 20.4491 31.1737 20.2778 31.1737 20.1031C31.1736 19.9285 31.1026 19.7572 30.9791 19.6337Z" fill="#FF6838"/>
<path d="M0.664062 23.7037C0.489414 23.7037 0.318086 23.7741 0.19457 23.8976C0.0710547 24.0218 0 24.1925 0 24.3678C0 24.5424 0.0709883 24.7131 0.19457 24.8373C0.318086 24.9608 0.489414 25.0319 0.664062 25.0319C0.838711 25.0319 1.01004 24.9608 1.13349 24.8373C1.257 24.7138 1.32812 24.5424 1.32812 24.3678C1.32812 24.1925 1.25707 24.0212 1.13349 23.8976C1.01004 23.7741 0.838711 23.7037 0.664062 23.7037Z" fill="#FF6838"/>
<path d="M30.1097 18.5424C30.4611 18.4377 30.6612 18.0679 30.5564 17.7164C30.0869 16.1411 29.2205 14.6915 28.0507 13.5242C26.8808 12.3567 25.4291 11.4934 23.8525 11.0274C23.5008 10.9234 23.1314 11.1243 23.0274 11.476C22.9234 11.8277 23.1243 12.1971 23.4761 12.301C26.278 13.1292 28.4491 15.2954 29.2836 18.0956C29.3695 18.3838 29.6337 18.5702 29.9197 18.5702C29.9825 18.5702 30.0464 18.5612 30.1097 18.5424Z" fill="#FF6838"/>
</g>
<defs>
<clipPath id="clip0">
<rect width="34" height="34" fill="white"/>
</clipPath>
</defs>
</svg>

<svg width="34" height="34" fill="none" xmlns="http://www.w3.org/2000/svg"><g clip-path="url(#clip0)" fill="#FF6838"><path d="M31.754 12.881l.996-.996c.288-.288.447-.67.447-1.078 0-.407-.159-.79-.447-1.077l-1.14-1.141a1.514 1.514 0 00-1.078-.447c-.407 0-.79.159-1.078.447l-.996.996a12.7 12.7 0 00-4.412-1.933V6.179h.606a1.49 1.49 0 001.488-1.488v-2.07a1.49 1.49 0 00-1.488-1.488H17.8a1.49 1.49 0 00-1.488 1.488v2.07c0 .82.668 1.488 1.488 1.488h.606v1.477a12.703 12.703 0 00-4.392 1.929l-.996-.996a1.514 1.514 0 00-1.078-.447c-.407 0-.79.159-1.078.447l-1.14 1.14a1.526 1.526 0 000 2.156l.176.177H5.19a.664.664 0 000 1.328h5.193a12.713 12.713 0 00-1.215 2.552H.664a.664.664 0 000 1.328H8.79a12.747 12.747 0 00-.314 2.553H4.25a.664.664 0 000 1.328h4.265c.072.879.233 1.733.474 2.552H3.32a.664.664 0 000 1.329h6.142c1.932 4.598 6.482 7.835 11.774 7.835C28.274 32.867 34 27.142 34 20.104c0-2.678-.83-5.167-2.246-7.222zm-1.36-3.353a.192.192 0 01.138-.058c.037 0 .091.01.139.058l1.14 1.14a.193.193 0 01.058.14.19.19 0 01-.058.138l-.873.873c-.435-.509-.91-.983-1.418-1.418l.873-.873zM17.64 4.69V2.62a.16.16 0 01.16-.16h6.852a.16.16 0 01.16.16v2.07a.16.16 0 01-.16.16H17.8a.16.16 0 01-.16-.16zm2.095 1.488h2.983v1.247a12.835 12.835 0 00-2.983.002V6.179zm-9.075 4.49l1.141-1.141a.192.192 0 01.139-.058c.037 0 .091.01.139.058l.873.873c-.51.435-.983.91-1.418 1.418l-.874-.873a.196.196 0 010-.277zm10.576 20.87C14.93 31.54 9.8 26.41 9.8 20.103S14.93 8.667 21.236 8.667s11.436 5.13 11.436 11.436-5.13 11.436-11.436 11.436z"/><path d="M25.619 14.781l-3.14 3.14a2.498 2.498 0 00-1.243-.331 2.517 2.517 0 00-2.514 2.513 2.517 2.517 0 002.514 2.514 2.516 2.516 0 002.514-2.514c0-.452-.121-.877-.331-1.244l3.139-3.139a.664.664 0 00-.94-.939zm-4.383 6.508a1.187 1.187 0 01-1.186-1.186 1.187 1.187 0 012.371 0c0 .654-.531 1.186-1.185 1.186zm0-9.795a.669.669 0 00.47-.195.67.67 0 00.194-.47.669.669 0 00-.664-.664.67.67 0 00-.47.195.668.668 0 00.47 1.134zm0 17.219a.669.669 0 00-.47.194.668.668 0 00.47 1.134.666.666 0 00.664-.664.669.669 0 00-.194-.47.669.669 0 00-.47-.194zm-6.558-15.831a.67.67 0 00-.47.194.67.67 0 00-.194.47.67.67 0 00.195.47.669.669 0 00.939 0 .67.67 0 00.194-.47.67.67 0 00-.194-.47.669.669 0 00-.47-.194zm13.116 13.115a.67.67 0 00-.47.194.668.668 0 000 .94.669.669 0 00.94 0 .67.67 0 00.194-.47.669.669 0 00-.664-.664zm-13.116 0a.67.67 0 00-.47.194.669.669 0 00-.194.47.67.67 0 00.195.47.67.67 0 00.47.194.669.669 0 00.469-.195.67.67 0 00.194-.47.67.67 0 00-.194-.469.67.67 0 00-.47-.194zm-2.716-6.557a.667.667 0 00-.664.663.666.666 0 00.664.664.666.666 0 00.665-.664.669.669 0 00-.665-.664zm19.018.194a.667.667 0 00-1.134.47.668.668 0 00.664.663.669.669 0 00.47-.194.67.67 0 00.194-.47.67.67 0 00-.195-.47zM.664 23.704a.669.669 0 00-.47.194.67.67 0 00-.194.47.67.67 0 00.195.47.67.67 0 00.47.194.669.669 0 00.468-.195.67.67 0 00.195-.47.67.67 0 00-.195-.47.668.668 0 00-.469-.193z"/><path d="M30.11 18.542a.664.664 0 00.446-.826 9.963 9.963 0 00-6.704-6.689.664.664 0 10-.376 1.274 8.576 8.576 0 015.808 5.795.664.664 0 00.826.446z"/></g><defs><clipPath id="clip0"><path fill="#fff" d="M0 0h34v34H0z"/></clipPath></defs></svg>
